X:24
T:Patsy Geary's
Z: id:dc-slide-25
M:6/8
L:1/8
K:D Major
D2E|F2A AFA|B=cB A2G|F2A d2e|f3 fef|!
g3 f3|e3 d2B|ABA AFD|E3 D2E|!
F2A AFA|B=cB A2G|F2A d2e|f3 fef|!
g3 f3|e3 d2B|ABA f2e|d3|]!
d2e|f2e f2e|f2e fga|ABA BAF|A3 ABd|!
e2d e2d|e2d efa|baf afe|d3:|!

